X:1300
L:1/8
M:6/8
K:G
 DGG GAG | FEF D2 c | B3 GBd | cAF F3 | D2 G GAG | FEF DBc | ded cAF |1 AGF GFE :|2 AGF GBc |: 
 dgg dff | dgg cBc | dgg dff | GAB ABc | def gab | agf g2 e | fed cAF |1 AGF GBc :|2 AGF GED ||

